X: 10391
M: 6/8
L: 1/8
K: G
|: d |\
def g2e | f2d e2B |\
def g2e | fed e3 |\
def gfe | fed efg !segno! |]


